svgs/shopee.svg

<svg width="192" height="192" viewBox="0 0 192 192" fill="none" xmlns="http://www.w3.org/2000/svg"><path d="m29.004 157.064 5.987-.399-5.987.399ZM22 52v-6a6 6 0 0 0-5.987 6.4L22 52Zm140.996 105.064-5.987-.399 5.987.399ZM170 52l5.987.4A6 6 0 0 0 170 46v6ZM34.991 156.665 27.987 51.601l-11.974.798 7.005 105.064 11.973-.798Zm133.991.798 7.005-105.064-11.974-.798-7.004 105.064 11.973.798Zm-11.973-.798a10 10 0 0 1-9.978 9.335v12c11.582 0 21.181-8.98 21.951-20.537l-11.973-.798Zm-133.991.798C23.788 169.02 33.387 178 44.968 178v-12a10 10 0 0 1-9.977-9.335l-11.973.798ZM74 48c0-12.15 9.85-22 22-22V14c-18.778 0-34 15.222-34 34h12Zm22-22c12.15 0 22 9.85 22 22h12c0-18.778-15.222-34-34-34v12ZM22 58h148V46H22v12Zm22.969 120H147.03v-12H44.969v12Z" fill="#000"/><path d="M114 84H88c-7.732 0-14 6.268-14 14v0c0 7.732 6.268 14 14 14h4m-2 0h14c7.732 0 14 6.268 14 14v0c0 7.732-6.268 14-14 14H78" stroke="#000" stroke-width="12" stroke-linecap="round"/></svg>

<svg id="vector" xmlns="http://www.w3.org/2000/svg" width="192" height="192" viewBox="0 0 192 192"><path fill="#000000" d="M29.004,157.064L34.991,156.665L29.004,157.064ZM22,52V46C20.339,46 18.753,46.688 17.618,47.901C16.484,49.114 15.903,50.742 16.013,52.399L22,52ZM162.996,157.064L157.009,156.665L157.009,156.665L162.996,157.064ZM170,52L175.987,52.399C176.097,50.742 175.516,49.114 174.381,47.901C173.247,46.688 171.661,46 170,46V52ZM34.991,156.665L27.987,51.601L16.013,52.399L23.018,157.463L34.991,156.665ZM168.982,157.463L175.987,52.399L164.013,51.601L157.009,156.665L168.982,157.463ZM157.009,156.665C156.659,161.918 152.296,166 147.031,166V178C158.613,178 168.212,169.02 168.982,157.463L157.009,156.665ZM23.018,157.463C23.788,169.02 33.387,178 44.969,178V166C39.704,166 35.341,161.918 34.991,156.665L23.018,157.463ZM74,48C74,35.85 83.85,26 96,26V14C77.222,14 62,29.222 62,48H74ZM96,26C108.15,26 118,35.85 118,48H130C130,29.222 114.778,14 96,14V26ZM22,58H170V46H22V58ZM44.969,178H147.031V166H44.969V178Z" id="path_0"/><path fill="#00000000" d="M114,84H88C80.268,84 74,90.268 74,98V98C74,105.732 80.268,112 88,112H92" stroke-width="12" stroke="#000000" stroke-linecap="round" id="path_1"/><path fill="#00000000" d="M90,112H104C111.732,112 118,118.268 118,126V126C118,133.732 111.732,140 104,140H78" stroke-width="12" stroke="#000000" stroke-linecap="round" id="path_2"/></svg>
